app/dist/common/images/yamato-holdings.svg

<svg height="18" width="18" xmlns="http://www.w3.org/2000/svg"><path d="m0 0h18v18h-18z" fill="#f0f3fa"/><ellipse cx="9" cy="9" fill="#fccf00" rx="7" ry="5"/><path d="m4.63 6h-.18v1.5c0 .62.32.95.45 1.05h-.23l-.52-.52h-.19v.97c.04.59.48.84.71.84h.13v.16h-.7v.27l.7.38v.45l-.35.35v.37h.55c1.04-.17 1.19-.92 1.2-1.27v-.65l.6.55-.52 2.2h.94l1.44-1.65h2.3l1.46 1.67h.98l-.83-3.22 2.41-1.47-.16-.64-2.52 1h-4.23c.21-.26.28-.71.26-.85v-1.52l-.13.03-1.05 1h-1.47z"/></svg>

<!-- by TradingView --><svg xmlns="http://www.w3.org/2000/svg" width="18" height="18"><path fill="#F0F3FA" d="M0 0h18v18H0z"/><ellipse cx="9" cy="9" rx="7" ry="5" fill="#FCCF00"/><path d="M4.63 6h-.18v1.5c0 .62.32.95.45 1.05h-.23l-.52-.52h-.19V9c.04.59.48.84.71.84h.13V10h-.7v.27l.7.38v.45l-.35.35v.37H5c1.04-.17 1.19-.92 1.2-1.27V9.9l.6.55-.52 2.2h.94L8.66 11h2.3l1.46 1.67h.98l-.83-3.22 2.41-1.47-.16-.64-2.52 1H8.07c.21-.26.28-.71.26-.85V5.97L8.2 6 7.15 7H5.68L4.63 6z"/></svg>
